X:1
T:Gigha, Corelli Sonata ye 4th. SenH.003
T:Gigha, Corelli Sonata ye 4th. SenH.003
T:in Hand A
C:in Hand A
L:1/8
Q:1/4=100
M:12/8
K:G
V:1 treble 
V:1
 d | d3 z z d (gdg) (bgb) | d'3 z z d' (bc'd') (bc'd') | a3 z z d (gag) (gag) | %4
 f3 z z d (gdg) (gdg) | e3 z z e (aea) (aea) | f3 z z a (d'bd') (gbg) | (ec'e) (fd'f) (gab) (gab) | %8
 (efg) (dfe) G3 (bd'b) | (c'ac') (d'ad') (bd'b) (ad'd) | (gbg) (eae) (faf) (eae) | %11
 (dgd) (^cfc) (BeB) (AdA) | (Bgf) (eag) (faf) (eae) | (dgd) (cfc) (BeB) (AdA) | %14
 (Bgf) e2 a f3- f2 || d | (fed) (fed) a3 z z a | (fed) (fed) b3 z z b | %18
 (gfe) (gfe) (c'ab) (c'ac') | ^d2 b e2 b (abg) f3 | e3 z3 z3 | z3 z2 a (d'ad') (d'ad') | %22
 b3 z z b (bc'd') (c'd'b) | a3 g6- g3 | z bc' (d'bc') (d'e'b) | (c'ab) (c'ab) (c'ab) (c'd'a) | %26
 (bga) (bgb) (ece) (ac'a) | (fdf) (bd'b) (geg) (c'e'c') | (afa) (d'e'd') (bd'b) (ad'a) | %29
 (gc'g) fbf (eae) (dgd) | (ecB) (AdA) (BdB) (AdA) | A2 A4 |] %32

